X: 129
T: REEL: Galtee Rangers
C: C: Trad.; S: Denis Murphy & Julia Clifford
C: Set Leaders: Anton, Oliushka, Sophie
Z: Anton Zille ed. arr.; Bregolas at The Session
N: https://thesession.org/members/26966/sets/63225
R: Reel
M: 4/4
L: 1/8
Q: 1/2=100
K: Dmaj
dB|"D"AFFE F2DE|"G"F2FE "A"FAdB|"D"AFFE F2DE|"G"FABA "A"FE E2|
"D"AF~F2 FEDE|"G"~F3E "A"FAdB|"Bm"AF~F2 FEDE|"G"FAEG "A"FD E/F/G||
"D"A3B AGFG|"G"ABde "A"fee2|"D"fedc BcdB|"G"ABde "A"fd~d2|
"D"~A3B AF~F2|"G"ABde "A"fe~e2|"Bm"fedc "G"BcdB|"A"A/B/c de fedB||

